X: 800
T: Gel Seninle Yarın Ey...
C: Sadullah Efendi
O: Turkey
F: http://compmusic.upf.edu/node/140
N: hicazkar--sarki--agiraksak--gel_seninle--sadullah_efendi
N: makam= hicazkar
N: form= sarki
N: usul= agiraksak = 9/4
M: 9/4
L: 1/16
K: C _1/4B _7/8e _7/8A ^f
Q: 1/4=66
%%MIDI tuningsystem comma53
f2g4=a2 _bagf edc2 dcBc d2e2 f2g2 a2ag g4  | 
w:  ARANAĞME  | 
fga4gf e3d c4 dfed edcB c6G2 A2B2  | \
w:   | 
c2d2 e2f2 g2a2 g2f2 baag gffe d3c B2A2 G4  | 
w:   | 
d2cd e2dc c2Bc d2cB B3A BAAG G4 cdef g4  | 
w:   | 
f2g4=a2 _bagf edc2 dcBc d2e2 f2g2 a2ag g4  | 
w:  ARANAĞME  | 
fga4gf e3d c4 dfed edcB c6G2 A2B2  | \
w:   | 
c2d2 e2f2 g2a2 g2f2 baag gffe d3c B2A2 G4  | 
w:   | 
d2cd e2dc c2Bc d2cB B3A BAAG G8 z4  | \
w:   | 
z8 z2g4=a2 _b6ba a3g g3f f3e  | 
w:  Gel  se nin *  *  le   | 
=agfe d4 z2g4a2 _b3a g2f2 {f}g4 {f}a4 b4  | \
w:  *  *  *  *  *  ya rın_ ey  *  *  *  *  serv_  | 
_b2f4ed d2=a4g2 c'2b2 a2g2 f3e d4 f4  | 
w:  *  i  *  *  *  *  *  *  *  *  *  *  *  *  re  | 
e2f2 e2f2 e2fg fed2 d3^c _7/8B2c2 d6g2 f2a2  | \
w:  vân  *  *  *  *  *  *  *  *  *  ca *  *  *  nım   SAZ  | 
g8 z2g4b2 a6g2 z2f4a2 g3f  | 
w:  *  O la lım  *  mah  | 
e3d c6d4g2 f2ed c2B2 c4 {e}d4 e4  | \
w:  *  *  *  fi ce  Gök *  *  *  *  su  | 
e2B4AG G2d4c2 =f2e2 d2c2 B3A G4 B4  | 
w:  *  ya  *  *  *  *  *  *  *  *  *  *  *  *  re  | 
A2B2 A2B2 A2Bc BAG2 G3F E2F2 G6g2 f2a2  | \
w:  vân  *  *  *  *  *  *  *  *  *  ca *  *  *  nım   SAZ  | 
g8 z2g4b2 a6g2 z2f4a2 g3f  | 
w:  *  O la lım  *  mah  | 
e3d c6d4g2 f2ed c2B2 c4 {e}d4 e4  | \
w:  *  *  *  fi ce  Gök *  *  *  *  su  | 
e2B4AG G2d4c2 =f2e2 d2c2 B3A G4 B4  | 
w:  *  ya  *  *  *  *  *  *  *  *  *  *  *  *  re  | 
A2B2 A2B2 A2Bc BAG2 G3F E2F2 G6c2 B2c2  | \
w:  vân  *  *  *  *  *  *  *  *  *  ca *  *  *  nım   SAZ  | 
d8 z2d4e=f e2d4c2 c8 c2{e}dc  | 
w:  *  Dî de  *  i  *  *  ağ  | 
c_BB=A B6B2 A2B2 c3e d3c cBBA AGGF F4  | 
w:  *  *  *  *  *  yâr *  dan_ o *  *  *  lup   | 
F2f4ed d2=a4g2 c'2_b2 a2g2 f3e d4 f4  | \
w:  *  da  *  *  *  *  *  *  *  *  *  *  *  *  ni  | 
e2f2 e2f2 e2fg fed2 d3^c _7/8B2c2 d6g2 f2a2  | 
w:  hân  *  *  *  *  *  *  *  *  *  ca *  *  *  nım   SAZ  | 
g8 z2g4b2 a6g2 z2f4a2 g3f  | e3d c6d4g2 f2ed c2B2 c4 {e}d4 e4  | 
w:  *  O la lım  *  mah  |  *  *  *  fi ce  Gök *  *  *  *  su  | 
e2B4AG G2d4c2 =f2e2 d2c2 B3A G4 B4  | \
w:  *  ya  *  *  *  *  *  *  *  *  *  *  *  *  re  | 
A2B2 A2B2 A2Bc BAG2 G3F E2F2 G6g2 f2a2  | 
w:  vân  *  *  *  *  *  *  *  *  *  ca *  *  *  nım   SAZ  | 
g8 z2g4b2 a6g2 z2f4a2 g3f  | e3d c6d4g2 f2ed c2B2 c4 {e}d4 e4  | 
w:  *  O la lım  *  mah  |  *  *  *  fi ce  Gök *  *  *  *  su  | 
e2B4AG G2d4c2 =f2e2 d2c2 B3A G4 B4  | \
w:  *  ya  *  *  *  *  *  *  *  *  *  *  *  *  re  | 
A2B2 A2B2 A2Bc BAG2 G3F E2F2 G6|
w:  vân  *  *  *  *  *  *  *  *  *  ca *  *  *  nım    | 


